static/app-dev/php.svg

<svg width="2500" height="1309" fill="none" xmlns="http://www.w3.org/2000/svg"><path d="M1250 1301.37c690.36 0 1250-291.32 1250-650.686C2500 291.321 1940.36 0 1250 0 559.644 0 0 291.321 0 650.684c0 359.366 559.644 650.686 1250 650.686Z" fill="#8993BE"/><path fill-rule="evenodd" clip-rule="evenodd" d="m351.025 1035.96 136.993-693.499h316.767c136.983 8.564 205.475 77.051 205.475 196.924 0 205.478-162.662 325.342-308.219 316.777H547.949l-34.248 179.798H351.025Zm231.163-308.216L625 470.889h111.299c59.932 0 102.734 25.683 102.734 77.05-8.554 145.557-77.051 171.241-154.101 179.805H582.188Zm396.25 128.418 136.982-693.486h162.68l-34.25 179.785h154.1c136.99 8.564 188.36 77.051 171.24 162.676l-59.93 351.025h-171.23l59.93-316.777c8.55-42.813 8.55-68.496-51.37-68.496h-128.43l-77.05 385.273H978.438Zm519.852 179.798 136.98-693.499h316.78c136.99 8.564 205.49 77.051 205.49 196.924 0 205.478-162.68 325.342-308.22 316.777h-154.11l-34.25 179.798h-162.67Zm231.15-308.216 42.82-256.855h111.3c59.94 0 102.74 25.683 102.74 77.05-8.56 145.557-77.05 171.241-154.1 179.805h-102.76Z" fill="#232531"/></svg>

<svg width="2500" height="1309" viewBox="0 0 2500 1309" fill="none"
  xmlns="http://www.w3.org/2000/svg">
  <path d="M1250 1301.37C1940.36 1301.37 2500 1010.05 2500 650.684C2500 291.321 1940.36 0 1250 0C559.644 0 0 291.321 0 650.684C0 1010.05 559.644 1301.37 1250 1301.37Z" fill="#8993BE"/>
  <path fill-rule="evenodd" clip-rule="evenodd" d="M351.025 1035.96L488.018 342.461H804.785C941.768 351.025 1010.26 419.512 1010.26 539.385C1010.26 744.863 847.598 864.727 702.041 856.162H547.949L513.701 1035.96H351.025ZM582.188 727.744L625 470.889H736.299C796.231 470.889 839.033 496.572 839.033 547.939C830.479 693.496 761.982 719.18 684.932 727.744H582.197H582.188ZM978.438 856.162L1115.42 162.676H1278.1L1243.85 342.461H1397.95C1534.94 351.025 1586.31 419.512 1569.19 505.137L1509.26 856.162H1338.03L1397.96 539.385C1406.51 496.572 1406.51 470.889 1346.59 470.889H1218.16L1141.11 856.162H978.438V856.162ZM1498.29 1035.96L1635.27 342.461H1952.05C2089.04 351.025 2157.54 419.512 2157.54 539.385C2157.54 744.863 1994.86 864.727 1849.32 856.162H1695.21L1660.96 1035.96H1498.29V1035.96ZM1729.44 727.744L1772.26 470.889H1883.56C1943.5 470.889 1986.3 496.572 1986.3 547.939C1977.74 693.496 1909.25 719.18 1832.2 727.744H1729.45H1729.44Z" fill="#232531"/>
</svg>
